X:139
T:Reel 139
M:4/4
K:Cmaj
L:1/8
GF|EDCF EFGA|FEGF ECCD|EDCD EFGf|ecdB cBGF|EDCD EFGE|FAGF ECCD|EDCD EFGf|egdB c2|cd|edcB cBGE|FAGF ECCf|ecdB cBGf|egdB c2cd|edcB cBGE|FAGF ECCD|EDCD EFGf|egdB c2|
